X:1
T:F Major Timothy Swan, 1801
T:Philip Doddridge, 1755 Amended by Timothy Swan, 1801
T:The Seasons
T:Transcribed from Swan's New England Harmony, 1801.
%%score [ 1 2 3 4 ]
L:1/8
Q:1/8=80
M:3/8
K:F
V:1 treble nm="Tr." snm="Tr."
V:2 treble nm="C." snm="C."
V:3 treble-8 nm="T." snm="T."
V:4 bass nm="B." snm="B."
V:1
 c | c/[Ac]/fc | cdTe | fe f/d/ |{d} c2 c | fcA | Gcf | e2 d | c2 c | c2 G | ABc | d2 c | c2 c | %13
 A/F/A/c/d | c2 f | f/>e/dc | g2 G | c2 z |[M:2/4][Q:1/4=50] c4 | Ac ff | c3 c | A>G Fc | (dfcA | %23
 F4) | c2 cA | B3 A | (G2 c)c | c2 z2 | AB cc | c3 A | B2 G2 | G4 | G2 AA | (f2 c)c | dc fe | %35
 d>e fd | dA de | f2 F2 | c3 A | G2 z2 |[M:6/8] c3 c2 c | cAc c2 c | A3 B3 | AcB Afd | c2 c c3- | %45
 c3 z2 f | ecc c2 f | ecc c2 c | Acf cAd | cAG c3 | G3 FGA | B2 A d2 e | f3- f3 | c3 c2 c | %54
 c2 c d2 A | G3- G2 z |[M:4/4] c4 A2 F2 | G6 c2 | c4 c4 | A6 d2 | f4 (f2 A2) | c6 c2 | c4 c4 | %63
 c4 z4 |[M:2/4][Q:1/8=120] f2 cA | G3 A | (A2 F)c | c2 z c | f3 A | B>c dc | AF Gc | c3 f | cf cA | %73
 G3 G | A3 c | d2 z c | A3 c | cA dB | Ac fc | d4 |[M:3/8] z2 c | cfA | Add | f/>e/d f/d/ | c2 c | %85
 dcB | A2 G | FAd | c2 z | fc d/f/ | d2 z | Ac d/f/ | d2 z | AAB | c2 z | ccd | c2 c | cf g/e/ | %98
 c2 c | f/>e/dc | c2 c/A/ | Acc | d2 c | c2 e | [Ff]2 z | Afe | d2 A | Ff/c/ B/A/ | dc z | %109
 c f/c/ c/A/ | df e/c/ | c/A/G A/B/ | c3 | c3 | c3 |] %115
V:2
"^E  –  ter    –   nal   source   of            eve   –   ry       joy!   Thy   praise    shall   eve   –   ry      voice      em–ploy,  While we with –" z | %1
 z3 | z3 | z3 | z2 F | A/>G/FF | G2 A | AGG | A2 G | G2 E | %10
"^– in   thy     courts  ap   –   pear,    And    sing __________________       the    boun   –   ties   of        the   year.          As      worlds      of" F2 A | %11
 AF c/A/ | G2 F | (FA B/G/ | A2) A | AFF | G2 G | A2 z |[M:2/4] A4 | A>G FA | %20
"^glo – ry   round           thee      roll, __________ Thy hand supports the  stead–fast  pole,       Thy  hand supports    the  steadfast" c2 A2 | %21
 F3 E | (FBAG | A4) | A2 FF | F3 D | G3 G | G2 z2 | F2 AA | G3 A | G2 G2 | %31
"^pole: Directs the sun what  hour  to    rise,         And  dark  –   ness  when to veil the  skies.       The  flowery  spring at thy com–" G4 | %32
 G2 FE | F3 A | A2 A2 | A3 F | F3 E | F3 A | G3 G | G2 z2 |[M:6/8] A3 GFE | F2 A A2 G | %42
"^–mand Embalms the air, and paints the land;       The  blazing beams of  summer shine,  To raise the corn, and cheer the vine." A3 G3 | %43
 AFG cAG | G2 G A3- | A3 z2 F | G2 G AFF | cAF G2 c | c2 A FAG | cAG G3 | %50
"^Thy hand in autumn rich–ly    pours       The co–pious fruit  a – long  the  shores.   While wintry storms direct our eyes  With" E3 F2 F | %51
 F2 F F2 G | A3- A3 | F3 cAG | G2 G FBA | G3- G2 z |[M:4/4] F4 F2 F2 | G6 G2 | E6 E2 | F6 A2 | %60
"^fear    and      wonder     to           the  skies.           Seasons, and months and weeks, and days          Demand   re  –  tur    –   ning" A4 F4 | %61
 c4 G4 | G6 G2 | A4 z4 |[M:2/4] F2 FF | G3 F | c3 c/A/ | F2 z A | A3 A | F3 F | %70
"^songs   of      praise; The  ope – ning    light and  eve – ning  shade, Shall see      the  cheer–ful     ho   –   mage  paid.        And" A2 c2 | %71
 A3 F | FA AF | G3 G | F2 A2 | G2 z G | A>G FG | A2 BG | A>G FF | F4 |[M:3/8] z2 F | %81
"^O        may   our     har – mo   –   nious tongues  In   worlds  un – known pur–sue  the  songs,             pursue   the      songs," A2 A | %82
 A2 F | F2 A | G2 F | FA B/G/ | A2 G | AFG | G2 z | FF A/F/ | G2 z | %91
"^pursue  the    songs,        pursue  the  songs,       pursue  the  songs;  And  in       those  brigh – ter  courts      a   –   dore,   Where" AFA | %92
 G2 z | AAF | c2 z | cAF | G2 G | A2 G | G2 G | F/>G/AA | A2 F | %101
"^days  and  years  re  – volve      no       more,    Where days and years re  – volve      no    more,      Where days and  years  re –" AFG | %102
 FBA | cGG | A2 z | AAc | FG A/G/ | F2 G | G2 z | FFF | FAc | %111
"^–volve       no       more,        no         more." A/F/DA | (A G2) | [EG]3 | [FA]3 |] %115
V:3
 F | F Ac | cB (3A/G/A/ | dcB | A2 f | c/d/c d/c/ | c2 d/c/ | c/>B/AG | F2 G | G2 E/4F/4G/ | FCA | %11
 A2 A/4B/4c/ | BGc | (fc (3d/c/B/ | AF)d | d/>e/fF | dcTB | A2 z |[M:2/4] f4 | (d c2) c | %20
 (c A2) f | cB/A/B/A/ G/F/ | (Bc/d/ c2 | c4) | f2 fc | d3 A | c3 A | AG z2 | d2 df | c>A GF | %30
 E2 D2 | C4 | c2 cc | (c2 f)f | fe dc | d3 A | (A2 D)E | F3 F | F3 F | c2 z2 |[M:6/8] f3 ede | %41
 fgf ede | f3 d3 | dcd dcB | ABG F3- | F3 z2 c/f/ | Te2 c cdc | def gec | f2 f f2 d | efg g3 | %50
 c3 AGF | F2 F FAc | c3- c3 | A3 AGF | AcG AGF | d3- d2 z |[M:4/4] A4 A2 A2 | c6 G2 | %58
 (G2 A2) (B2 c2) | d6 A2 | (d2 c2) A4 | G6 G2 | e4 (c2 e2) | f4 z4 |[M:2/4] c2 cA | c3 A | c3 A | %67
 cA z A | d3 A | f3 c | d/e/f e/f/g | f3 c | AF Ac | c2 GB | AF Ac | B2 z c | AF Ac | c2 GB | %78
 AF Ac | B4 |[M:3/8] z2 A | c2 c | d2 d | d/>e/fd | c2 B/A/ | GAd | c2 c | AdB | Gc z | cAd | %90
 TBG z | cAd | BG z | ecf | AF z | ecf | AFc | c2 e | egg | d/>e/f (3f/g/a/ | c2 f | f2 Te | %102
 f2 e/f/ | gf/e/ d/c/ | Tdc z | ccA | B2 c | cB/A/ G/F/ | AG z | AAF | d2 c | f/c/d c/B/ | A3 | %113
 G3 | F3 |] %115
V:4
 z | z3 | z3 | z3 | z2 F, | F,2 F, | C,2 F, | A,/>B,/CC, | F,2 C, | C,2 C, | F,G, A,/F,/ | D,2 F, | %12
 C,2 C,/F,/ | (F,2 G, | A,2) D, | D,2 F, | G,C,E, | F,2 z |[M:2/4] F,4 | F,3 F, | F,3 F, | F,3 C, | %22
 (B,,2 A,,[C,E,] | F,4) | F,2 F,F, | B,,3 D, | C,3 C, | C,2 z2 | D,B, A,/G,/F, | C,>D, E,F, | %30
 G,2 G,,2 | C,4 | C,2 A,,C, | F,3 F, | A,2 A,,2 | D,3 D, | D,3 C, | B,,3 D, | C,3 C, | C,2 z2 | %40
[M:6/8] F,3 C2 C, | F,2 F, A,2 C | F,3 G,3 | A,2 G, F,2 G, | C2 B, A,3- | A,3 z2 F, | C,CC A,2 F, | %47
 A,2 F, C2 A, | A,F,D, F,2 G, | C,2 C, C,3 | C,3 D,E,F, | B,,2 D, D,2 C, | F,3- F,3 | F,3 C2 C | %54
 C2 C, D,E,F, | G,3- G,2 z |[M:4/4] F,4 F,2 D,2 | C,6 C,2 | C,4 A,,4 | D,6 D,2 | %60
 (D,2 F,2) (D,2 F,2) | C,6 C,2 | C,4 C,4 | F,4 z4 |[M:2/4] F,2 F,F, | C,3 F, | A,,C, F,F, | %67
 F,2 z F, | D,3 F, | B,,3 F, | D,2 C,2 | F,3 F, | F,3 A,, | C,3 E, | F,2 A,F, | G,2 z C, | D,3 C, | %77
 F,A, G,2 | F,3 F, | B,,4 |[M:3/8] z2 F, | F,2 A, | D,2 B, | B,2 B,, | C,2 F, | B,A,G, | A,F,C, | %87
 D,2 G, | C,2 C, | F,2 D, | G,2 C, | F,2 D, | G,2 z | A,A,B, | C2 z | A,A,B, | C2 C, | F,A,C | %98
 C2 C, | D,2 D,/C,/ | F,2 F, | F,2 C, | B,2 A,/F,/ | C2 C, | F,2 z | A,F, A,/C/ | B,G, F,/C,/ | %107
 F,2 E,/D,/ | C,2 z | F,F,A, | D,2 A,/>G,/ | F,G, A,/B,/ | C3 | C,3 | F,3 |] %115

